X:1
T:We Are Watching
T:George Frederick Root
T:We Are Watching
T:Public Domain
T:Public Domain
T:Public Domain
C:George Frederick Root
Z:Public Domain
%%score ( 1 2 ) ( 3 4 )
L:1/8
M:2/4
K:G
V:1 treble 
V:2 treble 
V:3 bass 
V:4 bass 
V:1
 [DB]3 [CA] | [CA] [B,G]3 | [DG]3 [DF] | [DF] [CE]3 | [Ec]3 [DB] | [DB]2 [CA]2 | [B,G]2 [CA]2 | %7
w: 1.~We are|watch- ing,|we are|wait- ing,|For the|bright pro-|phet- ic|
w: 2.~We are|watch- ing,|we are|wait- ing,|For the|star that|brings the|
w: 3.~We are|watch- ing,|we are|wait- ing,|For the|beau- teous|King of|
w: 4.~We are|watch- ing,|we are|wait- ing,|For the|time so|long fore-|
w: 5.~We are|watch- ing,|we are|wait- ing,|For an|earth made|free from|
 [B,B]4 | [DB]3 [CA] | [CA] [B,G]3 | [DG]3 [DF] | [DF] [CE]3 | [Ec]3 [DB] | [DB]2 [CA]2 | %14
w: day;|When the|sha- dows,|wear- y|sha- dows|From the|world shall|
w: day;|When the|night of|sin shall|van- ish,|And the|sha- dows|
w: day;|For the|chief- est|of ten|thou- sand,|For the|Light, the|
w: told,|When with|saved ones|of all|ag- es,|We shall|walk the|
w: strife,|Then the|power of|Sa- tan|end- ed,|We shall|have e-|
 [B,G]2 [CF]2 | [B,G]4 ||"^Refrain" [Gd]3 [Gd] | [Ge] [Gd]3 | [GB]3 [GB] | [Gd] [GB]3 | G3 G | %21
w: roll a-|way.||||||
w: melt a-|way.||||||
w: Truth, the|Way.|We are|wait- ing|for the|morn- ing,|When the|
w: streets of|gold.||||||
w: ter- nal|life.||||||
 [FA]2 [FA]2 | [GB]2 [Gd]2 | [GB]2 [FA]2 | [Gd]3 [Gd] | [Ge] [Gd]3 | [GB]3 [GB] | [Gd] [GB]3 | %28
w: |||||||
w: |||||||
w: day is|dawn- ing;|We are|wait- ing|for the|morn- ing,|For the|
w: |||||||
w: |||||||
 G3 [FA] | [GB]2 [Gd]2 | [GB]2 [FA]2 | G4 |[M:4/4] [B,D]2 [B,D]2 [B,D]2 [B,D][B,D] | %33
w: |||||
w: |||||
w: gold- en|of day.|Lo! He|comes!|the King draw near; Zi-|
w: |||||
w: |||||
 [CE]2 [CE]2 [B,D]4 | [DG]2 [DG]2 (AB) [Ac]2 | [GB]2 [FA]2 G4 |] %36
w: |||
w: |||
w: on, shout! the|Lord is here. * *||
w: |||
w: |||
V:2
 x4 | x4 | x4 | x4 | x4 | x4 | x4 | x4 | x4 | x4 | x4 | x4 | x4 | x4 | x4 | x4 || x4 | x4 | x4 | %19
w: |||||||||||||||||||
w: |||||||||||||||||||
w: |||||||||||||||||||
 x4 | G3 G | x4 | x4 | x4 | x4 | x4 | x4 | x4 | G3 x | x4 | x4 | G4 |[M:4/4] x8 | x8 | x4 E2 x2 | %35
w: ||||||||||||||||
w: ||||||||||||||||
w: |beau- teous||||||||spires|||see||||
 x4 G4 |] %36
w: |
w: |
w: |
V:3
 [G,,G,]3 [G,,G,] | [G,,G,] [G,,G,]3 | [B,,G,]3 [B,,G,] | [C,G,] [C,G,]3 | [A,,A,]3 [A,,A,] | %5
 [D,F,]2 [D,F,]2 | [D,G,]2 [D,F,]2 | G,4 | [G,,G,]3 [G,,G,] | [G,,G,] [G,,G,]3 | [B,,G,]3 [B,,G,] | %11
 [C,G,] [C,G,]3 | [A,,A,]3 [A,,A,] | [D,F,]2 [D,F,]2 | [D,G,]2 [D,A,]2 | [G,,G,]4 || %16
 [G,B,]3 [G,B,] | [G,C] [G,B,]3 | [G,D]3 [G,D] | [G,B,] [G,D]3 | [B,,D]3 [B,,D] | [D,D]2 [D,D]2 | %22
 [G,D]2 [B,,D]2 | [D,D]2 [D,D]2 | [G,B,]3 [G,B,] | [G,C] [G,B,]3 | [G,D]3 [G,D] | [G,B,] [G,D]3 | %28
 [B,,D]3 [A,,D] | [G,,D]2 [B,,D]2 | [D,D]2 [D,C]2 | [G,,B,]4 | %32
[M:4/4] [G,,G,]2 [G,,G,]2 [G,,G,]2 [G,,G,][G,,G,] | [C,G,]2 [C,G,]2 [G,,G,]4 | %34
 [B,,G,]2 [B,,D]2 (CD) [A,,E]2 | [D,D]2 [D,C]2 [G,B,]4 |] %36
V:4
 x4 | x4 | x4 | x4 | x4 | x4 | x4 | G,4 | x4 | x4 | x4 | x4 | x4 | x4 | x4 | x4 || x4 | x4 | x4 | %19
 x4 | x4 | x4 | x4 | x4 | x4 | x4 | x4 | x4 | x4 | x4 | x4 | x4 |[M:4/4] x8 | x8 | x4 C,2 x2 | %35
 x8 |] %36

